X:4372
T:Drei Knig Lied
C:Trad.
N:von Konrad Mautner
I:160
M:3/4
L:1/8
K:G
G [DA] | [GB][Bd] [B2d2] [eg]>[ce] | [c2e2] [B2d2] [Ac] [Ac] | [G2B2] [G2B2] [Bd] [Bd] | [G2B2] Z2 [B,G] [DA] | [GB][Bd] [B2d2] [eg]>[ce] | [c2e2] [B2d2] [Ac] [Ac] |
[G2B2] [G2B2] [Bd] [Bd] | [G2B2] Z [F/2A/2] [FA]>[Ac] | [D2F2] [D2F2] [Ac]>[Ac] | [D2A2] z2 [eg]>[ce] | [B2d2] [G2B2] [Bd]>[Bd] | [G2B2] Z2 ||
